X:2180 
T:Curiosity born a native of Erin
T:(The green linnet) 
C:Traditional
O:Isle of Man
Z:Clague collection
B:Kiaull Vannin #180 
M:4/4 
L:1/4
Q:80 
K:D 
D|G B A G|G F E D|D F A B/c/|d3 d|G2 F D|E2 D D|D3:| 
B|A2 d d|c B A G|A d d d|d3 f/e/|d2 d d|c B A G|E2 D D|D3|| 

